X: 19380
T: Jack's The Lad
R: hornpipe
M: 4/4
K: Gmajor
gf|:g2G2G2dc|Bdgf gbag|a2A2A2AG|FAd^cd2ef|
gfed edcB|cBAG GFED|EGFA GBAc|1 B2G2 G2gf:|2 B2G2 G2dc||
|:B(3d/e/f/ gd B(3d/e/f/ gd|e2c2 c2ed|^c(3e/f/g/ ae ^c(3e/f/g/ ae|f2d2 d2ef|
gfed edcB|cBAG GFED|E/F/G F/G/A G/A/B A/B/c|1 B2G2 G2dc:|2 B2G2 G2gf||

